X:552
T:Pig Town Fling
T:Irish Reel
M:C|
L:1/8
K:G
"G"G2 ge d2 ed|"G"B2 ge "D"dBAB|"G"G2 ge d2 ed|"D"BGAG EFGA|
"G"G2 ge d2 ed|"G"B2 ge "D"dBAB|"G"G2 ge "C"d2 ed|\
"D"BGAF "G"G4:||:"Em"B2 e2 e3 g|
"D"fgaf "Em"gfed|"Em"B2 e2 e3 g|"D"fedf "Em"e2 ed|"Em"B2 e2 e3 g|\
"D"fgaf "Em"gfed|
"Em"B2 e2 e3 g|"D"fgaf "G"g4:|
